svg/fluentui-system-icons/ic_fluent_cellular_data_1_20_filled.svg

<svg width="20" height="20" viewBox="0 0 20 20" fill="none" xmlns="http://www.w3.org/2000/svg">
<path d="M4.75 12.0001C5.12656 12.0001 5.4383 12.2776 5.49187 12.6393L5.5 12.7501V15.2501C5.5 15.6643 5.16421 16.0001 4.75 16.0001C4.37344 16.0001 4.0617 15.7226 4.00813 15.3609L4 15.2501V12.7501C4 12.3359 4.33579 12.0001 4.75 12.0001ZM7.75 10.0001C8.12656 10.0001 8.4383 10.2776 8.49187 10.6393L8.5 10.7501V15.2501C8.5 15.6643 8.16421 16.0001 7.75 16.0001C7.37344 16.0001 7.0617 15.7226 7.00813 15.3609L7 15.2501V10.7501C7 10.3359 7.33579 10.0001 7.75 10.0001ZM10.75 8.0001C11.1266 8.0001 11.4383 8.27761 11.4919 8.63927L11.5 8.7501V15.2501C11.5 15.6643 11.1642 16.0001 10.75 16.0001C10.3734 16.0001 10.0617 15.7226 10.0081 15.3609L10 15.2501V8.7501C10 8.33588 10.3358 8.0001 10.75 8.0001ZM13.75 6.0001C14.1266 6.0001 14.4383 6.27761 14.4919 6.63927L14.5 6.7501V15.2488C14.5 15.663 14.1642 15.9988 13.75 15.9988C13.3734 15.9988 13.0617 15.7213 13.0081 15.3596L13 15.2488V6.7501C13 6.33588 13.3358 6.0001 13.75 6.0001ZM16.75 4.00003C17.1229 3.99661 17.4344 4.26825 17.4909 4.62563L17.5 4.73523L17.4856 15.2506C17.4896 15.6605 17.1602 15.996 16.75 16.0001C16.3771 16.0036 16.0656 15.7319 16.0091 15.3746L16 15.265L16.0144 4.74963C16.0104 4.33973 16.3398 4.00421 16.75 4.00003Z" fill="#212121"/>
</svg>

<svg xmlns="http://www.w3.org/2000/svg" width="20" height="20"><path d="M4.75 12a.75.75 0 0 1 .742.64l.008.11v2.5a.75.75 0 0 1-1.492.11L4 15.25v-2.5a.75.75 0 0 1 .75-.75Zm3-2a.75.75 0 0 1 .742.64l.008.11v4.5a.75.75 0 0 1-1.492.11L7 15.25v-4.5a.75.75 0 0 1 .75-.75Zm3-2a.75.75 0 0 1 .742.64l.008.11v6.5a.75.75 0 0 1-1.492.11L10 15.25v-6.5a.75.75 0 0 1 .75-.75Zm3-2a.75.75 0 0 1 .742.64l.008.11v8.499a.75.75 0 0 1-1.492.11L13 15.25v-8.5a.75.75 0 0 1 .75-.75Zm3-2a.743.743 0 0 1 .74.626l.01.11-.014 10.515a.743.743 0 0 1-1.477.124l-.009-.11.014-10.515A.743.743 0 0 1 16.75 4Z"/></svg>
